X:1
T:I’ll Sing for Jesus
T:I’ll Sing for Jesus
T:J. H. Anderson
T:Thaddeus Constantine Reade, 1876
T:Public Domain Courtesy of the Cyber Hymnal™
C:J. H. Anderson
Z:Public Domain
Z:Courtesy of the Cyber Hymnal™
%%score ( 1 2 ) ( 3 4 )
L:1/8
Q:1/4=110
M:4/4
K:Ab
V:1 treble 
V:2 treble 
V:3 bass 
V:4 bass 
V:1
 ([A,C][B,D]) | [CE]2 [CA]2 ([CA][EG]) (AB) | [Ec]2 [CA]2 [CE]2 [CE]2 | [DF]2 [FA]2 [Fd]2 [Fd]2 | %4
w: 1.~I’ll *|sing for Je- * sus *|while I’ve breath, I’ll|praise Him when I|
w: 2.~When *|sink- ing un- * der *|sin and grief, No|o- ther help was|
w: 3.~My *|trou- bled soul * found *|sweet re- pose, While|trust- ing in His|
 [Ec]6 ([EB][FA]) | [GB]2 [Ge]2 [Ge]2 ([GB][Bd]) | [Ac]2 ([Ac][GB]) A2 [CE]2 | %7
w: die; His *|lov- ing- kind- ness *|af- ter * death, I’ll|
w: nigh; ’Twas *|Je- sus came to *|my re- * lief, ’Twas|
w: blood, And *|from the depths of *|sin a- * rose, To|
 [DF]2 [Fd]2 [Ec]2 [DB]2 | [CA]6 ||"^Refrain" (AB) | (c4 cB) (Ac) | [Fe]6 (cA) | %12
w: her- ald to the|sky.|Sweet *|Sav- * * ior *|mine, I’ll *|
w: He who heard my|cry.||||
w: dwell with Christ in|God.||||
 [GB]2 [GB]>[GB] [Bd]2 [Ac]2 | [GB]6 (cd) | ([Ee]4 [Ee][Ac]) (Bc) | [FA]6 [FA]>[DF] | %16
w: sing of Thy won- drous|love, I’ll *|serve * * Thee *|still, And I’ll|
w: ||||
w: ||||
 [CE]2 [Ec]2 [DB]2 (!fermata!cB) | !fermata!A4 x2 |] %18
w: praise Thee up a- *|bove.|
w: ||
w: ||
V:2
 x2 | x6 E2 | x8 | x8 | x8 | x8 | x4 A2 x2 | x8 | x6 || A2 | A6 A2 | x6 A2 | x8 | x6 E2 | x6 _G2 | %15
 x8 | x6 D2 | (C2 D>D C2) |] %18
V:3
 [A,,E,]2 | [A,,A,]2 [A,,E,]2 E,2 ([C,A,][E,G,]) | A,2 A,2 [A,,A,]2 [A,,A,]2 | %3
w: ~|~ ~ ~ ~ *|~ ~ ~ ~|
 [D,A,]2 [D,A,]2 A,2 A,2 | A,6 ([G,B,][F,C]) | [E,E]2 [E,B,]2 [E,B,]2 [E,B,E]2 | %6
w: ~ ~ ~ ~|~ ~ *|~ ~ ~ ~|
 [A,E]2 (ED) [A,C]2 [A,,A,]2 | [D,A,]2 [B,,B,]2 [E,G,]2 [E,G,]2 | [A,,A,]6 || z2 | %10
w: ~ ~ * ~ ~|~ ~ ~ ~|~||
 z2 [A,E]2 (ED) (CE) | [A,C]2 [A,C]2 [A,C]2 (EC) | [E,E]2 [E,E]>[E,E] [G,E]2 [A,E]2 | %13
w: Sweet Sav- * ior, *|Sav- ior mine, I’ll *|sing of Thy won- drous|
 [E,E]2 [E,E]>[E,E] E2 ([C,A,][B,,G,]) | [A,,C]2 [A,,C]>[A,,C] (CA,) [C,A,]2 | %15
w: love, won- drous love, I’ll *|serve, yes, I’ll serve * Thee|
 [D,A,]2 [D,D]>[D,D] [D,D]2 [D,D]>[D,A,] | [E,A,]2 [E,A,]2 [E,G,]2 !fermata![E,G,]2 | %17
w: still, serve Thee still, And I’ll|praise Thee up a-|
 [A,,A,]2 !fermata![D,F,]>!fermata![D,F,] !fermata![A,,E,]2 |] %18
w: bove, up a- bove.|
V:4
 x2 | x4 (A,,B,,) x2 | A,2 A,2 x4 | x4 (D,E,) (F,G,) | A,6 x2 | x8 | x2 A,2 x4 | x8 | x6 || x2 | %10
 x4 A,2 A,2 | x6 A,2 | x8 | x4 (E,D,) x2 | x4 A,,2 x2 | x8 | x8 | x6 |] %18

